assets/shopping-grey/ShoppingGrey4.svg

<svg xmlns="http://www.w3.org/2000/svg" data-name="Layer 3" viewBox="0 0 128 128"><path d="M106.235 55.691a8.311 8.311 0 00-8.2-8.4h-12.3L75.282 29.957a1.591 1.591 0 00-2.726 1.643l9.462 15.691H45.984L55.447 31.6a1.592 1.592 0 00-2.726-1.644L42.267 47.292h-12.3a8.389 8.389 0 00-.572 16.741l2.392 25.416a10.546 10.546 0 0010.283 9.364h43.86a10.545 10.545 0 0010.286-9.364l2.392-25.416a8.3 8.3 0 007.627-8.342zm-71.284 33.46l-2.358-25.059h8.027L43.1 95.63h-1.03a7.394 7.394 0 01-7.119-6.479zm49.265-25.059L81.743 95.63h-6.9l2.227-31.538zM71.654 95.63h-6.063V64.092h8.29zm-9.245 0h-6.035l-2.226-31.538h8.26zm-11.45-31.538l2.226 31.538h-6.9l-2.472-31.538zm42.089 25.059a7.394 7.394 0 01-7.118 6.479h-.994l2.473-31.538h8zm4.987-28.241h-68.07a5.221 5.221 0 010-10.435h10.383l-.515.855a1.592 1.592 0 002.726 1.644l1.507-2.5h39.872l1.507 2.5a1.592 1.592 0 102.726-1.644l-.515-.855h10.38a5.221 5.221 0 010 10.435z"/></svg>

<svg id="Layer_3" data-name="Layer 3" xmlns="http://www.w3.org/2000/svg" viewBox="0 0 128 128"><title>Artboard 100</title><path d="M106.235,55.691a8.311,8.311,0,0,0-8.2-8.4h-12.3L75.282,29.957A1.591,1.591,0,0,0,72.556,31.6l9.462,15.691H45.984L55.447,31.6a1.592,1.592,0,0,0-2.726-1.644L42.267,47.292h-12.3a8.389,8.389,0,0,0-.572,16.741l2.392,25.416A10.546,10.546,0,0,0,42.07,98.813H85.93a10.545,10.545,0,0,0,10.286-9.364l2.392-25.416A8.3,8.3,0,0,0,106.235,55.691ZM34.951,89.151,32.593,64.092h8.027L43.1,95.63H42.07A7.394,7.394,0,0,1,34.951,89.151ZM84.216,64.092,81.743,95.63h-6.9L77.07,64.092ZM71.654,95.63H65.591V64.092h8.29Zm-9.245,0H56.374L54.148,64.092h8.26ZM50.959,64.092,53.185,95.63h-6.9L43.813,64.092ZM93.048,89.151A7.394,7.394,0,0,1,85.93,95.63h-.994l2.473-31.538h8Zm4.987-28.241H29.965a5.221,5.221,0,0,1,0-10.435H40.348l-.515.855a1.592,1.592,0,0,0,2.726,1.644l1.507-2.5H83.938l1.507,2.5a1.592,1.592,0,1,0,2.726-1.644l-.515-.855h10.38a5.221,5.221,0,0,1,0,10.435Z"/></svg>
